X: 43604
T: Younger Norway
R: hornpipe
M: 4/4
K: Gmajor
D2 G2 G2 AB|c2 Bc A2 dc|BABG E2 FG|AGFE EF D2|
D2 G2 G2 AB|c2 Bc A2 dc|BABG E2 FG|GDBA GABc|
d2 d2 d2 ed|c2 Bc A2 dc|BABG E2 FG|AGFE EF D2|
d2 d2 d2 ed|c2 Bc A2 dc|BABG E2 FG|GDBA G4|

